X:1
T:Title
%%score { ( 1 3 ) | ( 2 4 ) }
L:1/8
Q:1/4=94
M:4/4
K:Bb
V:1 bass nm="Grand Piano"
V:3 bass 
V:2 bass 
V:4 bass 
V:1
 [B,DF]2 [F,B,D][F,CE][K:treble] [B,DF]3 [A,EF] | [B,DF][B,FB][EA][DB] d2 c2 | A2 BG c3 F | %3
w: Victor~H.~Benke * * * *|||
 [CDA][B,DG][A,CF][B,C=E] F2- [_EF]2 | [B,DF]2[K:bass] [F,B,D][F,CE][K:treble] [DF]3 [DB] | %5
w: ||
 [EA][FB][Ge][Gd] [Gc]2 G2 | B2 AG F2 G2 |[M:5/4] BAGA [DB]6 |] %8
w: |||
V:2
 B,,2 B,,B,, B,,3 C, | D,D,[C,F,][B,,F,][K:treble] [F,B,F]2 [F,A,F]2 | %2
 [F,CF]2 [G,C=E][B,CE] [A,CF]3[K:bass] [F,A,C] | z4 F,4 | B,,2 B,,B,, [B,,B,]3 [B,,B,] | %5
 [C,F,][D,B,][G,=B,][F,B,] [E,C]2 [E,CE]2 | [E,G,C]2 [=E,A,_D][E,B,D] [F,B,=D]2 [F,B,D]2 | %7
[M:5/4] [F,DF][F,CE][F,B,E][F,CE] [B,,B,]6 |] %8
V:3
 x4[K:treble] x4 | x8 | x8 | z4 [A,C]2 z2 | x2[K:bass] x2[K:treble] x4 | x8 | x8 |[M:5/4] x10 |] %8
V:4
 x8 | x4[K:treble] x4 | x7[K:bass] x | B,,B,,C,C, z2 C2 | x8 | x8 | x8 |[M:5/4] x10 |] %8

